X: 15165
T: Gigue Du Plateau
R: reel
M: 4/4
K: Dmajor
cFAc fdBF|cFce dFBd|cFAc BdcB|cdcB c4|
cFAc fdBF|cFce dFBd|cFAc BdcB|cdcA F4:|
cFFc dFFd|cFFc BFFB|cFFc dFcB|cCCc CCcC
cFFc dFFd|cFFc BFFB|cFFc d2cB|AcBA AF (3FFF:|
cAAc dBBd|ecce fdaf|eaad caac|BeeB e4|
cAAc dBBd|ecce fdaf|eaad caac|Beec A4:|

